X:435
T: Silly Old Man
T: Seanduine Coile\'ailte
S: B.Breathnach: "Ceol Rince na hEireann" II/98
Z: B.Black
L: 1/8
M: 9/8
R: slipjig
K: G
d|BGG GEG GEG|BGG GEG A2d|BGG GEG GAB|cBA BGE D2 :|
c|Bdd dge dBG|Bdd edB A2c|Bdd dge dBG|cBA BGE D2 :|

